icons/1_Primary/itch.io.svg

<svg xmlns="http://www.w3.org/2000/svg" viewBox="0 0 1024 1024">
   <circle cx="512" cy="512" r="512" style="fill:#fa5c5c"/>
   <path d="M322.7 284.6c-22.3 13.3-66.3 63.8-66.8 77.1v22c0 27.8 26 52.3 49.6 52.3 28.4 0 52-23.5 52-51.4 0 27.9 22.8 51.4 51.2 51.4 28.4 0 50.4-23.5 50.4-51.4 0 27.9 24.3 51.4 52.6 51.4h.5c28.4 0 52.6-23.5 52.6-51.4 0 27.9 22.1 51.4 50.4 51.4 28.4 0 51.2-23.5 51.2-51.4 0 27.9 23.6 51.4 52 51.4 23.6 0 49.6-24.4 49.6-52.3v-22c-.4-13.2-44.4-63.8-66.8-77.1-69.4-2.4-117.6-2.9-189.3-2.8s-169.4 1.1-189.2 2.8zm136.1 138.1c-2.8 4.9-6.1 9.1-10 12.8-10.7 10.5-25.4 16.9-41.5 16.9h-.1c-16.2 0-30.9-6.5-41.6-17-3.9-3.8-6.8-7.9-9.5-12.6-2.7 4.7-6.4 8.8-10.3 12.6-10.7 10.5-25.4 16.9-41.6 16.9h-.1c-1.9 0-4-.5-5.6-1.1-2.3 23.7-3.2 46.4-3.6 62.9v.1c0 8.4-.1 15.3-.1 24.9.4 49.8-4.9 161.4 22 188.8 41.7 9.7 118.3 14.1 195.2 14.2 76.9 0 153.6-4.5 195.2-14.2 26.9-27.4 21.5-139 22-188.8 0-9.6-.1-16.5-.1-24.9v-.1c-.3-16.5-1.3-39.2-3.6-62.9-1.6.6-3.7 1.1-5.6 1.1-16.2 0-30.9-6.5-41.6-17-3.9-3.8-7.6-7.9-10.3-12.6-2.7 4.7-5.7 8.8-9.5 12.6-10.7 10.5-25.4 17-41.6 17h-.1c-16.2 0-30.8-6.5-41.5-17-3.8-3.7-7.1-7.9-9.8-12.6l-.1-.3a57.5 57.5 0 0 1-9.9 12.8c-10.7 10.5-25.4 17-41.6 17h-3.6c-16.2 0-30.9-6.5-41.6-17-3.8-3.7-7.1-7.9-9.7-12.6l-.2.1zM416 478c17 .1 32 0 50.6 20.4 14.7-1.5 30-2.3 45.3-2.3 15.3 0 30.7.7 45.3 2.3C576 478 591 478.1 607.9 478c8 0 40 0 62.3 62.6l23.9 85.9c17.8 63.9-5.7 65.5-34.9 65.5-43.2-1.6-67.2-33-67.2-64.5-24 3.9-52 5.9-80 5.9s-56-2-80-5.9c0 31.5-24 62.9-67.3 64.6-29.2-.1-52.7-1.6-34.9-65.5l24-85.9C376 478 408 478 416 478zm96 49.2c0 .1-45.6 41.9-53.8 56.8l29.8-1.2v26c0 1.2 12 .7 24 .2 12 .6 24 1 24-.2v-26l29.8 1.2c-8.2-14.8-53.8-56.7-53.8-56.8z" style="fill:#fff"/>
</svg>

<svg width="1024" height="1024" viewBox="0 0 1024 1024" fill="none" xmlns="http://www.w3.org/2000/svg">
<g clip-path="url(#clip0_2_2544)">
<path d="M512 1024C794.77 1024 1024 794.77 1024 512C1024 229.23 794.77 0 512 0C229.23 0 0 229.23 0 512C0 794.77 229.23 1024 512 1024Z" fill="#FF837D"/>
<path d="M322.7 284.6C300.4 297.9 256.4 348.4 255.9 361.7V383.7C255.9 411.5 281.9 436 305.5 436C333.9 436 357.5 412.5 357.5 384.6C357.5 412.5 380.3 436 408.7 436C437.1 436 459.1 412.5 459.1 384.6C459.1 412.5 483.4 436 511.7 436H512.2C540.6 436 564.8 412.5 564.8 384.6C564.8 412.5 586.9 436 615.2 436C643.6 436 666.4 412.5 666.4 384.6C666.4 412.5 690 436 718.4 436C742 436 768 411.6 768 383.7V361.7C767.6 348.5 723.6 297.9 701.2 284.6C631.8 282.2 583.6 281.7 511.9 281.8C440.2 281.9 342.5 282.9 322.7 284.6ZM458.8 422.7C456 427.6 452.7 431.8 448.8 435.5C438.1 446 423.4 452.4 407.3 452.4H407.2C391 452.4 376.3 445.9 365.6 435.4C361.7 431.6 358.8 427.5 356.1 422.8C353.4 427.5 349.7 431.6 345.8 435.4C335.1 445.9 320.4 452.3 304.2 452.3H304.1C302.2 452.3 300.1 451.8 298.5 451.2C296.2 474.9 295.3 497.6 294.9 514.1V514.2C294.9 522.6 294.8 529.5 294.8 539.1C295.2 588.9 289.9 700.5 316.8 727.9C358.5 737.6 435.1 742 512 742.1C588.9 742.1 665.6 737.6 707.2 727.9C734.1 700.5 728.7 588.9 729.2 539.1C729.2 529.5 729.1 522.6 729.1 514.2V514.1C728.8 497.6 727.8 474.9 725.5 451.2C723.9 451.8 721.8 452.3 719.9 452.3C703.7 452.3 689 445.8 678.3 435.3C674.4 431.5 670.7 427.4 668 422.7C665.3 427.4 662.3 431.5 658.5 435.3C647.8 445.8 633.1 452.3 616.9 452.3H616.8C600.6 452.3 586 445.8 575.3 435.3C571.5 431.6 568.2 427.4 565.5 422.7L565.4 422.4C562.72 427.112 559.387 431.421 555.5 435.2C544.8 445.7 530.1 452.2 513.9 452.2H510.3C494.1 452.2 479.4 445.7 468.7 435.2C464.9 431.5 461.6 427.3 459 422.6L458.8 422.7ZM416 478C433 478.1 448 478 466.6 498.4C481.3 496.9 496.6 496.1 511.9 496.1C527.2 496.1 542.6 496.8 557.2 498.4C576 478 591 478.1 607.9 478C615.9 478 647.9 478 670.2 540.6L694.1 626.5C711.9 690.4 688.4 692 659.2 692C616 690.4 592 659 592 627.5C568 631.4 540 633.4 512 633.4C484 633.4 456 631.4 432 627.5C432 659 408 690.4 364.7 692.1C335.5 692 312 690.5 329.8 626.6L353.8 540.7C376 478 408 478 416 478ZM512 527.2C512 527.3 466.4 569.1 458.2 584L488 582.8V608.8C488 610 500 609.5 512 609C524 609.6 536 610 536 608.8V582.8L565.8 584C557.6 569.2 512 527.3 512 527.2Z" fill="white"/>
</g>
<defs>
<clipPath id="clip0_2_2544">
<rect width="1024" height="1024" fill="white"/>
</clipPath>
</defs>
</svg>
